!!!SOCIAL_FUNCTION: steal-partner dance songs
!!!PDT:	1943
!!!LING_GROUP: Muskogean
!!!LANG: Non-Tone
Specific Region: Oklahoma, California, Mississippi, Louisiana, Texas, Alabama
!!!REG: Southeast
!!!COM: Anon.
!!!OTL: Steal-partner Dance Song (c)
!!!ODT: <1933//
!!!MPN: Lysander Tubby and Gus Willis
!!!MLC: Philadelphia, Mississippi, United States of America
!! Song was recorded in January 1933.
!!!AGN: monody
!!!AMT: irregular
!!!RWG: Transcribed pitches, durations, and meters are only approximate.
**kern
*ICvox
*Imale
*clefF4
*k[b-]
*M3/4
*MM80
*[A,1st ending,A,2nd ending,A,3rd ending,A,4th ending]
*>A
=1-
4A
8.G
16F
8F
8F+
*M2/4
=2
4F
8F
8r
*M3/4
=3
8G
8G
(8.G
16F)
4F
=4
8A
8G
4A
4G
=5
8F
8D
4F
4r
=6
8F
8D
8F
8F
4F
*M2/4
=7
4D
4G
=8
4F
8F
8D
=9
4F
4r
=10
*>1st ending
8F
8D
8F
8F
=11
4F
4D
=12
*>2nd ending
8F
8D
4F
=13
4F
4c
=14
*>3rd ending
8F
8D
8F
8F
=15
4F
4D
=16
*>4th ending
*M3/4
8F
8D
4F
8F
8r
==
*-
!!!CNT: Choctaw
!!!TXO: Choctaw
!!!OCY: United States
!!!OCL: Frances Densmore
!!!YOR: Frances Densmore, "Choctaw Music"
!!!YOR: Bulletin 136, page 155, No. 35
!!!PPR: Smithsonian Institution, Bureau of American Ethnology
!!!PPR: Government Printing Office
!!!PDT: 1943
!!!PPP: Washington, DC, United States of America
!!!YEC: Electronic Copyright 2000 David Huron
!!!YER: August 2000
!!!YEN: United States of America
!!!ENC: David Huron
!!!RDT: August 28, 2000
!!!EEV: Release 1.0
!!!AIN: vox
